X:118
T:Sandhill Corner
Z:Jack Campin, http://www.campin.me.uk/
S:Northumbrian Minstrelsy
M:6/8
L:1/8
K:G
c|B2d B2d|efg f2d|g2e dBG|A2A A2
c|B2d B2d|efg f2d|g2e dBG|G2G G2:|
e|g2g f2d|efg d2f|g2e dBG|A2A A2
c|g2g f2d|efg d2f|g2e dBG|G2G G2
d|g2g f2d|efg d2f|g2e dBG|A2A A2
c|B2d c2e|d2f e2f|g2e dBG|G2G G2|]

